dist/assets/img/basket.svg

<svg width="51" height="51" viewBox="0 0 51 51" fill="none" xmlns="http://www.w3.org/2000/svg">
<g clip-path="url(#clip0)">
<path d="M15.924 30.2662H45.3846L50.5973 11.6595H42.9261L40.1718 3.15179L28.6855 6.87519L30.2565 11.6595H29.7158L26.8799 3.15179L15.3936 6.87519L16.9645 11.6595H10.8235L9.54839 6.55895C8.9057 4.00868 6.68189 2.20315 4.12142 2.20315H0.612305V4.33513H4.12142C5.71275 4.33513 7.10009 5.39602 7.52857 6.99764L13.1697 29.0726C12.0068 29.9091 11.2418 31.2761 11.2418 32.8369C11.2418 35.3871 13.3737 37.5191 15.924 37.5191H44.6399V35.3871H15.924C14.5367 35.3871 13.3737 34.214 13.3737 32.8369C13.3738 31.4393 14.5469 30.2662 15.924 30.2662ZM38.7948 5.8041L40.7125 11.5473H32.4191L31.246 8.2524L38.7948 5.8041ZM25.5028 5.8041L27.4206 11.5473H19.1272L17.954 8.2524L25.5028 5.8041ZM47.8329 13.6793L43.7932 28.1444H15.0773L11.3539 13.6794L47.8329 13.6793Z" fill="black"/>
<path d="M35.2855 40.6913C32.8373 40.6913 30.8174 42.7111 30.8174 45.1593C30.8174 47.6076 32.8373 49.6274 35.2855 49.6274C37.8358 49.6274 39.7535 47.6076 39.7535 45.1593C39.7536 42.7111 37.7338 40.6913 35.2855 40.6913ZM35.2855 47.6076C33.8982 47.6076 32.8373 46.4344 32.8373 45.1593C32.8373 43.772 34.0104 42.7111 35.2855 42.7111C36.6728 42.7111 37.7337 43.772 37.7337 45.1593C37.7338 46.5467 36.5607 47.6076 35.2855 47.6076Z" fill="black"/>
<path d="M18.9026 40.6913C16.4544 40.6913 14.4346 42.7111 14.4346 45.1593C14.4346 47.6076 16.4544 49.6274 18.9026 49.6274C21.3508 49.6274 23.3706 47.6076 23.3706 45.1593C23.3706 42.7111 21.3508 40.6913 18.9026 40.6913ZM18.9026 47.6076C17.5153 47.6076 16.4544 46.4344 16.4544 45.1593C16.4544 43.772 17.6275 42.7111 18.9026 42.7111C20.1777 42.7111 21.3508 43.772 21.3508 45.1593C21.3508 46.5467 20.1777 47.6076 18.9026 47.6076Z" fill="black"/>
</g>
<defs>
<clipPath id="clip0">
<rect width="49.985" height="49.985" fill="white" transform="translate(0.612305 0.922531)"/>
</clipPath>
</defs>
</svg>

<svg width="51" height="51" fill="none" xmlns="http://www.w3.org/2000/svg"><g clip-path="url(#clip0)" fill="#000"><path d="M15.924 30.266h29.46l5.213-18.607h-7.67l-2.755-8.507-11.486 3.723 1.57 4.784h-.54L26.88 3.152 15.394 6.875l1.57 4.784h-6.14l-1.276-5.1c-.642-2.55-2.866-4.356-5.427-4.356H.612v2.132h3.51c1.59 0 2.978 1.061 3.407 2.663l5.64 22.075a4.622 4.622 0 00-1.927 3.764c0 2.55 2.132 4.682 4.682 4.682H44.64v-2.132H15.924c-1.387 0-2.55-1.173-2.55-2.55 0-1.398 1.173-2.57 2.55-2.57zm22.87-24.462l1.919 5.743h-8.294l-1.173-3.295 7.549-2.448zm-13.291 0l1.918 5.743h-8.294l-1.173-3.295 7.549-2.448zm22.33 7.875l-4.04 14.465H15.077L11.354 13.68h36.479zM35.285 40.691c-2.448 0-4.468 2.02-4.468 4.468 0 2.449 2.02 4.468 4.468 4.468 2.55 0 4.469-2.02 4.469-4.468s-2.02-4.468-4.468-4.468zm0 6.917c-1.387 0-2.448-1.174-2.448-2.449 0-1.387 1.173-2.448 2.448-2.448 1.388 0 2.449 1.061 2.449 2.448 0 1.388-1.173 2.449-2.449 2.449zm-16.382-6.917c-2.449 0-4.468 2.02-4.468 4.468 0 2.449 2.02 4.468 4.468 4.468s4.468-2.02 4.468-4.468-2.02-4.468-4.468-4.468zm0 6.917c-1.388 0-2.449-1.174-2.449-2.449 0-1.387 1.174-2.448 2.449-2.448s2.448 1.061 2.448 2.448c0 1.388-1.173 2.449-2.448 2.449z"/></g><defs><clipPath id="clip0"><path fill="#fff" transform="translate(.612 .923)" d="M0 0h49.985v49.985H0z"/></clipPath></defs></svg>
